packages/katcn/src/icons/svg/mark.svg

<svg width="24" height="24" viewBox="0 0 24 24" fill="none" xmlns="http://www.w3.org/2000/svg">
<path fill-rule="evenodd" clip-rule="evenodd" d="M12 5.5C8.41015 5.5 5.5 8.41015 5.5 12C5.5 15.5899 8.41015 18.5 12 18.5C15.5899 18.5 18.5 15.5899 18.5 12C18.5 8.41015 15.5899 5.5 12 5.5ZM3.5 12C3.5 7.30558 7.30558 3.5 12 3.5C16.6944 3.5 20.5 7.30558 20.5 12C20.5 16.6944 16.6944 20.5 12 20.5C7.30558 20.5 3.5 16.6944 3.5 12Z" fill="black"/>
<path fill-rule="evenodd" clip-rule="evenodd" d="M12 9.70001C10.7298 9.70001 9.70001 10.7298 9.70001 12C9.70001 13.2703 10.7298 14.3 12 14.3C13.2703 14.3 14.3 13.2703 14.3 12C14.3 10.7298 13.2703 9.70001 12 9.70001ZM7.70001 12C7.70001 9.62519 9.62519 7.70001 12 7.70001C14.3748 7.70001 16.3 9.62519 16.3 12C16.3 14.3748 14.3748 16.3 12 16.3C9.62519 16.3 7.70001 14.3748 7.70001 12Z" fill="black"/>
<path fill-rule="evenodd" clip-rule="evenodd" d="M12 1C12.5523 1 13 1.44772 13 2V4.5C13 5.05228 12.5523 5.5 12 5.5C11.4477 5.5 11 5.05228 11 4.5V2C11 1.44772 11.4477 1 12 1Z" fill="black"/>
<path fill-rule="evenodd" clip-rule="evenodd" d="M1 12C1 11.4477 1.44772 11 2 11H4.5C5.05228 11 5.5 11.4477 5.5 12C5.5 12.5523 5.05228 13 4.5 13H2C1.44772 13 1 12.5523 1 12Z" fill="black"/>
<path fill-rule="evenodd" clip-rule="evenodd" d="M18.5 12C18.5 11.4477 18.9477 11 19.5 11H22C22.5523 11 23 11.4477 23 12C23 12.5523 22.5523 13 22 13H19.5C18.9477 13 18.5 12.5523 18.5 12Z" fill="black"/>
<path fill-rule="evenodd" clip-rule="evenodd" d="M12 18.5C12.5523 18.5 13 18.9477 13 19.5V22C13 22.5523 12.5523 23 12 23C11.4477 23 11 22.5523 11 22V19.5C11 18.9477 11.4477 18.5 12 18.5Z" fill="black"/>
</svg>

<svg xmlns="http://www.w3.org/2000/svg" fill="none" viewBox="0 0 24 24"><path fill="#000" fill-rule="evenodd" d="M12 5.5a6.5 6.5 0 1 0 0 13 6.5 6.5 0 0 0 0-13M3.5 12a8.5 8.5 0 1 1 17 0 8.5 8.5 0 0 1-17 0" clip-rule="evenodd"/><path fill="#000" fill-rule="evenodd" d="M12 9.7a2.3 2.3 0 1 0 0 4.6 2.3 2.3 0 0 0 0-4.6M7.7 12a4.3 4.3 0 1 1 8.6 0 4.3 4.3 0 0 1-8.6 0M12 1a1 1 0 0 1 1 1v2.5a1 1 0 1 1-2 0V2a1 1 0 0 1 1-1M1 12a1 1 0 0 1 1-1h2.5a1 1 0 1 1 0 2H2a1 1 0 0 1-1-1m17.5 0a1 1 0 0 1 1-1H22a1 1 0 1 1 0 2h-2.5a1 1 0 0 1-1-1M12 18.5a1 1 0 0 1 1 1V22a1 1 0 1 1-2 0v-2.5a1 1 0 0 1 1-1" clip-rule="evenodd"/></svg>
